X:1
T:舒缓旋律
M:4/4
L:1/4
K:C
G4 | E4 | D4 | C4 | E4 | G4 | A4 | G4 | E4 | D4 | C4 | D4 | E4 | F4 | E4 | D4 | C4 | E4 | G4 | A4 | G4 | E4 | D4 | C4 | D4 | E4 | F4 | E4 | D4 | C4 | G4 | E4 | D4 | C4 | E4 | G4 | A4 | G4 | E4 | D4 | C4 | D4 | E4 | F4 | E4 | D4 | C4 | E4 | G4 | A4 | G4 | E4 | D4 | C4 | D4 | E4 | F4 | E4 | D4 | C4 | G4 | E4 | D4 | C4 | E4 | G4 | A4 | G4 | E4 | D4 | C4 | D4 | E4 | F4 | E4 | D4 | C4 | E4 | G4 | A4 | G4 | E4 | D4 | C4 | D4 | E4 | F4 | E4 | D4 | C4 | G4 | E4 | D4 | C4 | E4 | G4 | A4 | G4 | E4 | D4 | C4 | D4 | E4 | F4 | E4 | D4 | C4 | E4 | G4 | A4 | G4 | E4 | D4 | C4 | D4 | E4 | F4 | E4 | D4 | C4 | G4 | E4 | D4 | C4 | E4 | G4 | A4 | G4 | E4 | D4 | C4 | D4 | E4 | F4 | E4 | D4 | C4 | E4 | G4 | A4 | G4 | E4 | D4 | C4 | D4 | E4 | F4 | E4 | D4 | C4 | G4 | E4 | D4 | C4 | E4 | G4 | A4 | G4 | E4 | D4 | C4 | D4 | E4 | F4 | E4 | D4 | C4 | E4 | G4 | A4 | G4 | E4 | D4 | C4 | D4 | E4 | F4 | E4 | D4 | C4 | G4 | E4 | D4 | C4 | E4 | G4 | A4 | G4 | E4 | D4 | C4 | D4 | E4 | F4 | E4 | D4 | C4 | E4 | G4 | A4 | G4 | E4 | D4 | C4 | D4 | E4 | F4 | E4 | D4 | C4 | G4 | E4 | D4 | C4 | E4 | G4 | A4 | G4 | E4 | D4 | C4 | D4 | E4 | F4 | E4 | D4 | C4 | E4 | G4 | A4 | G4 | E4 | D4 | C4 | D4 | E4 | F4 | E4 | D4 | C4 | G4 | E4 | D4 | C4 | E4 | G4 | A4 | G4 | E4 | D4 | C4 | D4 | E4 | F4 | E4 | D4 | C4 | E4 | G4 | A4 | G4 | E4 | D4 | C4 | D4 | E4 | F4 | E4 | D4 | C4 | G4 | E4 | D4 | C4 | E4 | G4 | A4 | G4 | E4 | D4 | C4 | D4 | E4 | F4 | E4 | D4 | C4 | E4 | G4 | A4 | G4 | E4 | D4 | C4 | D4 | E4 | F4 | E4 | D4 | C4 | G4 | E4 | D4 | C4 | E4 | G4 | A4 | G4 | E4 | D4 | C4 | D4 | E4 | F4 | E4 | D4 | C4 | E4 | G4 | A4 | G4 | E4 | D4 | C4 | D4 | E4 | F4 | E4 | D4 | C4 | G4 | E4 | D4 | C4 | E4 | G4 | A4 | G4 | E4 | D4 | C4 | D4 | E4 | F4 | E4 | D4 | C4 | E4 | G4 | A4 | G4 | E4 | D4 | C4 | D4 | E4 | F4 | E4 | D4 | C4 | G4 | E4 | D4 | C4 | E4 | G4 | A4 | G4 | E4 | D4 | C4 | D4 | E4 | F4 | E4 | D4 | C4 | E4 | G4 | A4 | G4 | E4 | D4 | C4 | D4 | E4 | F4 | E4 | D4 | C4 | G4 | E4 | D4 | C4 | E4 | G4 | A4 | G4 | E4 | D4 | C4 | D4 | E4 | F4 | E4 | D4 | C4 | E4 | G4 | A4 | G4 | E4 | D4 | C4 | D4 | E4 | F4 | E4 | D4 | C4 | G4 | E4 | D4 | C4 | E4 | G4 | A4 | G4 | E4 | D4 | C4 | D4 | E4 | F4 | E4 | D4 | C4 | E4 | G4 | A4 | G4 | E4 | D4 | C4 | D4 | E4 | F4 | E4 | D4 | C4 | G4 | E4 | D4 | C4 | E4 | G4 | A4 | G4 | E4 | D4 | C4 | D4 | E4 | F4 | E4 | D4 | C4 | E4 | G4 | A4 | G4 | E4 | D4 | C4 | D4 | E4 | F4 | E4 | D4 | C4 | G4 | E4 | D4 | C4 | E4 | G4 | A4 | G4 | E4 |  